icons/dataspell-dark.svg

<svg width="256" height="256" viewBox="0 0 256 256" fill="none" xmlns="http://www.w3.org/2000/svg">
<path d="M196 0H60C26.8629 0 0 26.8629 0 60V196C0 229.137 26.8629 256 60 256H196C229.137 256 256 229.137 256 196V60C256 26.8629 229.137 0 196 0Z" fill="#282828"/>
<path d="M153.188 41L156.613 111.281L69.0312 145.881L42 75.9601L153.188 41Z" fill="url(#paint0_linear_58_70)"/>
<path d="M215 82.0875L139.312 114.885L153.188 41L215 82.0875Z" fill="#21D789"/>
<path d="M134.807 98.3062L215 82.0874V157.955L159.856 178.68L137.329 158.135L134.807 98.3062Z" fill="url(#paint1_linear_58_70)"/>
<path d="M101.469 76.1406L156.797 84.7009L215 157.281L159.133 178.859L137.576 157.459L101.469 76.1406Z" fill="url(#paint2_linear_58_70)"/>
<path d="M77.6813 41L156.613 84.6101L129.401 214H83.4476L43.6219 172.912L77.6813 41Z" fill="url(#paint3_linear_58_70)"/>
<path d="M181.211 74.7891H75.7891V180.211H181.211V74.7891Z" fill="black"/>
<path d="M126.743 162.055H87.5022V168.498H126.743V162.055ZM87.9531 88.3048H103.366C115.871 88.3048 124.306 96.7386 124.306 107.789C124.306 118.84 115.872 127.565 103.366 127.565L87.9531 127.857V88.3048ZM96.6777 96.4477V120.004H103.366C110.346 120.004 115.29 115.351 115.29 108.372C115.29 101.391 110.637 96.4477 103.366 96.4477H96.6788H96.6777ZM128.5 121.878L133.596 115.729C137.11 118.715 140.975 120.472 145.368 120.472C148.882 120.472 151.165 119.066 151.165 116.783V116.607C151.165 114.323 149.76 113.269 143.259 111.512C135.177 109.578 130.081 107.295 130.081 99.3876V99.2125C130.081 92.0081 135.88 87.2646 143.962 87.2646C149.76 87.2646 154.679 89.0217 158.721 92.3595L154.153 98.8611C150.639 96.4012 147.125 94.9956 143.787 94.9956C140.448 94.9956 138.691 96.5764 138.691 98.5096V98.6848C138.691 101.321 140.448 102.199 147.301 103.956C155.383 106.064 159.95 108.876 159.95 115.904V116.08C159.95 123.986 153.977 128.379 145.368 128.379C139.394 128.203 133.245 126.094 128.5 121.878Z" fill="white"/>
<defs>
    <linearGradient id="paint0_linear_58_70" x1="12872.3" y1="5289.06" x2="1405.13" y2="5289.06" gradientUnits="userSpaceOnUse">
        <stop stop-color="#21D789"/>
        <stop offset="0.917" stop-color="#FCF84A"/>
    </linearGradient>
    <linearGradient id="paint1_linear_58_70" x1="4141.81" y1="967.631" x2="4141.81" y2="15279.2" gradientUnits="userSpaceOnUse">
        <stop stop-color="#21D789"/>
        <stop offset="1" stop-color="#087CFA"/>
    </linearGradient>
    <linearGradient id="paint2_linear_58_70" x1="16908.7" y1="12894.2" x2="1216.61" y2="106.352" gradientUnits="userSpaceOnUse">
        <stop offset="0.105" stop-color="#21D789"/>
        <stop offset="0.967" stop-color="#087CFA"/>
    </linearGradient>
    <linearGradient id="paint3_linear_58_70" x1="9594.43" y1="-1290.67" x2="663.66" y2="8830.9" gradientUnits="userSpaceOnUse">
        <stop offset="0.235" stop-color="#21D789"/>
        <stop offset="0.74" stop-color="#087CFA"/>
    </linearGradient>
    <clipPath id="clip0_58_70">
        <rect width="256" height="256" fill="white"/>
    </clipPath>
    <clipPath id="clip1_58_70">
        <rect width="173" height="173" fill="white" transform="translate(42 41)"/>
    </clipPath>
</defs>
</svg>

<svg xmlns="http://www.w3.org/2000/svg" width="256" height="256" fill="none"><path fill="#282828" d="M196 0H60C26.863 0 0 26.863 0 60v136c0 33.137 26.863 60 60 60h136c33.137 0 60-26.863 60-60V60c0-33.137-26.863-60-60-60"/><path fill="url(#paint0_linear_58_70)" d="m153.188 41 3.425 70.281-87.582 34.6L42 75.961z"/><path fill="#21D789" d="m215 82.088-75.688 32.797L153.188 41z"/><path fill="url(#paint1_linear_58_70)" d="M134.807 98.306 215 82.087v75.868l-55.144 20.725-22.527-20.545z"/><path fill="url(#paint2_linear_58_70)" d="m101.469 76.14 55.328 8.56L215 157.282l-55.867 21.578-21.557-21.4z"/><path fill="url(#paint3_linear_58_70)" d="m77.681 41 78.932 43.61L129.401 214H83.448l-39.826-41.088z"/><path fill="#000" d="M181.211 74.79H75.789v105.42h105.422z"/><path fill="#fff" d="M126.743 162.055h-39.24v6.443h39.24zm-38.79-73.75h15.413c12.505 0 20.94 8.434 20.94 19.484s-8.434 19.776-20.94 19.776l-15.413.292zm8.725 8.143v23.556h6.688c6.98 0 11.924-4.653 11.924-11.632 0-6.981-4.653-11.924-11.924-11.924zm31.822 25.43 5.096-6.149c3.514 2.986 7.379 4.743 11.772 4.743 3.514 0 5.797-1.406 5.797-3.689v-.176c0-2.284-1.405-3.338-7.906-5.095-8.082-1.934-13.178-4.217-13.178-12.124v-.175c0-7.205 5.799-11.948 13.881-11.948 5.798 0 10.717 1.757 14.759 5.094l-4.568 6.502c-3.514-2.46-7.028-3.865-10.366-3.865s-5.096 1.58-5.096 3.514v.175c0 2.636 1.757 3.514 8.61 5.271 8.082 2.108 12.649 4.92 12.649 11.948v.176c0 7.906-5.973 12.299-14.582 12.299-5.974-.176-12.123-2.285-16.868-6.501"/><defs><linearGradient id="paint0_linear_58_70" x1="12872.3" x2="1405.13" y1="5289.06" y2="5289.06" gradientUnits="userSpaceOnUse"><stop stop-color="#21D789"/><stop offset=".917" stop-color="#FCF84A"/></linearGradient><linearGradient id="paint1_linear_58_70" x1="4141.81" x2="4141.81" y1="967.631" y2="15279.2" gradientUnits="userSpaceOnUse"><stop stop-color="#21D789"/><stop offset="1" stop-color="#087CFA"/></linearGradient><linearGradient id="paint2_linear_58_70" x1="16908.7" x2="1216.61" y1="12894.2" y2="106.352" gradientUnits="userSpaceOnUse"><stop offset=".105" stop-color="#21D789"/><stop offset=".967" stop-color="#087CFA"/></linearGradient><linearGradient id="paint3_linear_58_70" x1="9594.43" x2="663.66" y1="-1290.67" y2="8830.9" gradientUnits="userSpaceOnUse"><stop offset=".235" stop-color="#21D789"/><stop offset=".74" stop-color="#087CFA"/></linearGradient></defs></svg>
